X:193
T:Windsor Forest
M:C
L:1/8
B:Thompson's Compleat Collection of 200 Favourite Country Dances, vol. 2 (London, 1765)
Z:Transcribed and edited by Flynn Titford-Mock, 2007
Z:abc's:AK/Fiddler's Companion
K:Bb
BdfB AcfA | Ge/d/ cB AGFE | DFBD CEAc | {Bc}d2 FA B2 B,2 :|
|: BdfB AcfA | Gf=ef (g/f/=e/d/) cB | AcfA Gf=eg | (f/g/a) c=e f2 F2 |
dfbd cbac | Bg/f/ e/d/c/B/ AGFE | DFBD CBAc | {Bc}d2 FA B2 B,2 :|

